public/assets/images/doctors/femaledoctor.svg

<svg id="Capa_1" enable-background="new 0 0 512 512" height="512" viewBox="0 0 512 512" width="512" xmlns="http://www.w3.org/2000/svg"><g><path d="m256 452c-4.142 0-7.5 3.358-7.5 7.5s3.358 7.5 7.5 7.5 7.5-3.358 7.5-7.5-3.358-7.5-7.5-7.5zm0-45c-4.142 0-7.5 3.358-7.5 7.5s3.358 7.5 7.5 7.5 7.5-3.358 7.5-7.5-3.358-7.5-7.5-7.5zm0 90c-4.142 0-7.5 3.358-7.5 7.5s3.358 7.5 7.5 7.5 7.5-3.358 7.5-7.5-3.358-7.5-7.5-7.5zm147.342-153.868-33.384-11.234c18.455-13.145 30.022-34.719 30.022-58.007.048-.096 0-129.91 0-129.91 0-38.446-14.975-74.601-42.167-101.803-27.197-27.199-63.355-42.178-101.813-42.178-24.702 0-49.073 6.363-70.48 18.402-3.61 2.03-4.891 6.603-2.861 10.213 2.03 3.611 6.604 4.89 10.213 2.861 19.167-10.778 40.996-16.476 63.128-16.476 34.451 0 66.842 13.418 91.206 37.782 24.359 24.369 37.774 56.757 37.774 91.198v.034c-4.356-2.5-9.396-3.938-14.768-3.938h-7.207c-20.066-3.446-39.747-9.133-58.505-16.918-14.276-5.925-28.149-13.124-41.233-21.396-4.582-2.898-10.56-2.629-14.875.669-10.207 7.797-21.229 14.54-32.762 20.04-20.721 9.882-43.018 15.803-66.275 17.605h-7.566c-5.372 0-10.412 1.438-14.768 3.938v-.034c0-34.898 13.716-67.585 38.622-92.039 2.956-2.902 2.999-7.65.097-10.606-2.901-2.955-7.65-3-10.606-.097-27.802 27.297-43.113 63.786-43.113 102.742v129.91c0 23.288 11.567 44.863 30.022 58.007l-33.385 11.235c-27.5 9.256-45.977 34.967-45.977 63.978v97.39c0 4.142 3.358 7.5 7.5 7.5s7.5-3.358 7.5-7.5v-97.39c0-22.564 14.372-42.562 35.762-49.761l13.034-4.386c-1.929 7.927-2.782 16.098-2.482 24.187.284 7.68 1.58 15.229 3.823 22.55-14.569 4.374-25.217 17.902-25.217 33.877v30.523c0 7.551 6.143 13.693 13.693 13.693h8.405c4.142 0 7.5-3.358 7.5-7.5s-3.358-7.5-7.5-7.5h-7.099v-29.217c0-11.227 9.13-20.361 20.355-20.368.006 0 .011.001.017.001s.012-.001.018-.001c11.222.012 20.348 9.144 20.348 20.368v29.217h-7.098c-4.142 0-7.5 3.358-7.5 7.5s3.358 7.5 7.5 7.5h8.405c7.55 0 13.693-6.143 13.693-13.693v-30.523c0-17.708-13.081-32.416-30.087-34.973-2.545-7.099-3.989-14.48-4.268-22.009-.369-9.984 1.374-20.127 5.044-29.538l51.161-17.217 53.681 53.68c4.385 4.427 11.863 4.448 16.264 0l14.815-14.815c2.929-2.929 2.929-7.678 0-10.606-2.929-2.929-7.678-2.929-10.606 0l-12.342 12.339-47.541-47.541c7.049-6.128 10.261-15.469 9.541-24.894 11.487 4.006 23.798 6.205 36.599 6.25 12.902.045 25.536-2.06 37.401-6.127-1.225 9.565 3.206 19.974 10.648 25.664l-9.609 9.609c-2.929 2.929-2.929 7.678 0 10.606 2.929 2.929 7.678 2.929 10.606 0l13.663-13.663 45.673 15.37c3.454 8.784 5.237 18.285 5.148 27.687-.081 8.524-1.709 17.132-4.711 25.157-19.497 2.552-34.604 19.261-34.604 39.443 0 21.942 17.851 39.793 39.793 39.793s39.793-17.85 39.793-39.792c0-18.369-12.514-33.864-29.462-38.425 2.67-8.416 4.108-17.262 4.191-26.033.07-7.343-.808-14.737-2.563-21.913l16.992 5.718c21.391 7.2 35.762 27.198 35.762 49.762v97.39c0 4.142 3.358 7.5 7.5 7.5s7.5-3.358 7.5-7.5v-97.39c0-29.01-18.477-54.72-45.978-63.977zm-33.515-188.056h.385c8.125 0 14.736 6.596 14.768 14.713v.115c-.036 8.226-6.89 14.949-15.153 14.713zm-242.807 14.714c.024-8.231 6.899-14.945 15.153-14.713v29.542c-8.263.228-15.118-6.468-15.153-14.713zm76.98 132.28c0 5.375-3.418 10.133-8.512 11.842l-34.409 11.58c-20.473-8.764-34.058-29.177-34.058-51.601v-78.209c4.706 2.72 9.907 4.03 15.62 3.938 3.561 40.029 27.564 74.268 61.359 91.899zm51.65-12.817c-54.3-.188-98.477-45.039-98.477-99.98v-34.862c22.703-2.493 44.509-8.671 64.914-18.401 12.061-5.751 23.603-12.759 34.328-20.838 13.46 8.419 27.697 15.765 42.335 21.84 18.027 7.483 36.863 13.134 56.076 16.829v36.586c0 26.462-10.323 51.322-29.067 70.002-19.063 18.998-42.875 28.919-70.109 28.824zm95.272 36.238-34.417-11.582c-5.087-1.706-8.505-6.464-8.505-11.839v-10.333c10.326-5.314 19.884-12.248 28.348-20.683 19.404-19.337 30.967-44.426 33.11-71.436 5.515.079 11.005-1.313 15.523-3.938v78.209c-.001 22.425-13.586 42.839-34.059 51.602zm43.478 112.509c0 13.671-11.122 24.793-24.792 24.793-13.671 0-24.793-11.122-24.793-24.793 0-13.661 11.107-24.776 24.764-24.792.008 0 .016.001.024.001.007 0 .014-.001.021-.001 13.663.008 24.776 11.126 24.776 24.792zm-89.903-276.806c-4.142 0-7.5 3.358-7.5 7.5v17.157c0 4.142 3.358 7.5 7.5 7.5s7.5-3.358 7.5-7.5v-17.157c0-4.142-3.358-7.5-7.5-7.5zm-37.848 71.258c-1.688 1.199-5.23 3.236-9.989 3.406-5.368.187-9.401-2.055-11.316-3.412-3.379-2.395-8.061-1.596-10.456 1.784-2.395 3.379-1.596 8.061 1.784 10.456 3.319 2.352 10.14 6.184 19.334 6.184 8.055 0 15.535-3.494 19.329-6.189 3.377-2.399 4.17-7.081 1.771-10.458-2.398-3.377-7.08-4.17-10.457-1.771zm-59.146-71.258c-4.142 0-7.5 3.358-7.5 7.5v17.157c0 4.142 3.358 7.5 7.5 7.5s7.5-3.358 7.5-7.5v-17.157c0-4.142-3.357-7.5-7.5-7.5z"/></g></svg>

<svg width="512" height="512" viewBox="0 0 512 512" fill="#6959CC" xmlns="http://www.w3.org/2000/svg">
<path d="M256 452C251.858 452 248.5 455.358 248.5 459.5C248.5 463.642 251.858 467 256 467C260.142 467 263.5 463.642 263.5 459.5C263.5 455.358 260.142 452 256 452ZM256 407C251.858 407 248.5 410.358 248.5 414.5C248.5 418.642 251.858 422 256 422C260.142 422 263.5 418.642 263.5 414.5C263.5 410.358 260.142 407 256 407ZM256 497C251.858 497 248.5 500.358 248.5 504.5C248.5 508.642 251.858 512 256 512C260.142 512 263.5 508.642 263.5 504.5C263.5 500.358 260.142 497 256 497ZM403.342 343.132L369.958 331.898C388.413 318.753 399.98 297.179 399.98 273.891C400.028 273.795 399.98 143.981 399.98 143.981C399.98 105.535 385.005 69.38 357.813 42.178C330.616 14.979 294.458 0 256 0C231.298 0 206.927 6.363 185.52 18.402C181.91 20.432 180.629 25.005 182.659 28.615C184.689 32.226 189.263 33.505 192.872 31.476C212.039 20.698 233.868 15 256 15C290.451 15 322.842 28.418 347.206 52.782C371.565 77.151 384.98 109.539 384.98 143.98V144.014C380.624 141.514 375.584 140.076 370.212 140.076H363.005C342.939 136.63 323.258 130.943 304.5 123.158C290.224 117.233 276.351 110.034 263.267 101.762C258.685 98.864 252.707 99.133 248.392 102.431C238.185 110.228 227.163 116.971 215.63 122.471C194.909 132.353 172.612 138.274 149.355 140.076H141.789C136.417 140.076 131.377 141.514 127.021 144.014V143.98C127.021 109.082 140.737 76.395 165.643 51.941C168.599 49.039 168.642 44.291 165.74 41.335C162.839 38.38 158.09 38.335 155.134 41.238C127.332 68.535 112.021 105.024 112.021 143.98V273.89C112.021 297.178 123.588 318.753 142.043 331.897L108.658 343.132C81.1581 352.388 62.6812 378.099 62.6812 407.11V504.5C62.6812 508.642 66.0392 512 70.1812 512C74.3232 512 77.6812 508.642 77.6812 504.5V407.11C77.6812 384.546 92.0532 364.548 113.443 357.349L126.477 352.963C124.548 360.89 123.695 369.061 123.995 377.15C124.279 384.83 125.575 392.379 127.818 399.7C113.249 404.074 102.601 417.602 102.601 433.577V464.1C102.601 471.651 108.744 477.793 116.294 477.793H124.699C128.841 477.793 132.199 474.435 132.199 470.293C132.199 466.151 128.841 462.793 124.699 462.793H117.6V433.576C117.6 422.349 126.73 413.215 137.955 413.208C137.961 413.208 137.966 413.209 137.972 413.209C137.978 413.209 137.984 413.208 137.99 413.208C149.212 413.22 158.338 422.352 158.338 433.576V462.793H151.24C147.098 462.793 143.74 466.151 143.74 470.293C143.74 474.435 147.098 477.793 151.24 477.793H159.645C167.195 477.793 173.338 471.65 173.338 464.1V433.577C173.338 415.869 160.257 401.161 143.251 398.604C140.706 391.505 139.262 384.124 138.983 376.595C138.614 366.611 140.357 356.468 144.027 347.057L195.188 329.84L248.869 383.52C253.254 387.947 260.732 387.968 265.133 383.52L279.948 368.705C282.877 365.776 282.877 361.027 279.948 358.099C277.019 355.17 272.27 355.17 269.342 358.099L257 370.438L209.459 322.897C216.508 316.769 219.72 307.428 219 298.003C230.487 302.009 242.798 304.208 255.599 304.253C268.501 304.298 281.135 302.193 293 298.126C291.775 307.691 296.206 318.1 303.648 323.79L294.039 333.399C291.11 336.328 291.11 341.077 294.039 344.005C296.968 346.934 301.717 346.934 304.645 344.005L318.308 330.342L363.981 345.712C367.435 354.496 369.218 363.997 369.129 373.399C369.048 381.923 367.42 390.531 364.418 398.556C344.921 401.108 329.814 417.817 329.814 437.999C329.814 459.941 347.665 477.792 369.607 477.792C391.549 477.792 409.4 459.942 409.4 438C409.4 419.631 396.886 404.136 379.938 399.575C382.608 391.159 384.046 382.313 384.129 373.542C384.199 366.199 383.321 358.805 381.566 351.629L398.558 357.347C419.949 364.547 434.32 384.545 434.32 407.109V504.499C434.32 508.641 437.678 511.999 441.82 511.999C445.962 511.999 449.32 508.641 449.32 504.499V407.109C449.32 378.099 430.843 352.389 403.342 343.132V343.132ZM369.827 155.076H370.212C378.337 155.076 384.948 161.672 384.98 169.789V169.904C384.944 178.13 378.09 184.853 369.827 184.617V155.076ZM127.02 169.79C127.044 161.559 133.919 154.845 142.173 155.077V184.619C133.91 184.847 127.055 178.151 127.02 169.906V169.79ZM204 302.07C204 307.445 200.582 312.203 195.488 313.912L161.079 325.492C140.606 316.728 127.021 296.315 127.021 273.891V195.682C131.727 198.402 136.928 199.712 142.641 199.62C146.202 239.649 170.205 273.888 204 291.519V302.07ZM255.65 289.253C201.35 289.065 157.173 244.214 157.173 189.273V154.411C179.876 151.918 201.682 145.74 222.087 136.01C234.148 130.259 245.69 123.251 256.415 115.172C269.875 123.591 284.112 130.937 298.75 137.012C316.777 144.495 335.613 150.146 354.826 153.841V190.427C354.826 216.889 344.503 241.749 325.759 260.429C306.696 279.427 282.884 289.348 255.65 289.253V289.253ZM350.922 325.491L316.505 313.909C311.418 312.203 308 307.445 308 302.07V291.737C318.326 286.423 327.884 279.489 336.348 271.054C355.752 251.717 367.315 226.628 369.458 199.618C374.973 199.697 380.463 198.305 384.981 195.68V273.889C384.98 296.314 371.395 316.728 350.922 325.491ZM394.4 438C394.4 451.671 383.278 462.793 369.608 462.793C355.937 462.793 344.815 451.671 344.815 438C344.815 424.339 355.922 413.224 369.579 413.208C369.587 413.208 369.595 413.209 369.603 413.209C369.61 413.209 369.617 413.208 369.624 413.208C383.287 413.216 394.4 424.334 394.4 438V438ZM304.497 161.194C300.355 161.194 296.997 164.552 296.997 168.694V185.851C296.997 189.993 300.355 193.351 304.497 193.351C308.639 193.351 311.997 189.993 311.997 185.851V168.694C311.997 164.552 308.639 161.194 304.497 161.194ZM266.649 232.452C264.961 233.651 261.419 235.688 256.66 235.858C251.292 236.045 247.259 233.803 245.344 232.446C241.965 230.051 237.283 230.85 234.888 234.23C232.493 237.609 233.292 242.291 236.672 244.686C239.991 247.038 246.812 250.87 256.006 250.87C264.061 250.87 271.541 247.376 275.335 244.681C278.712 242.282 279.505 237.6 277.106 234.223C274.708 230.846 270.026 230.053 266.649 232.452V232.452ZM207.503 161.194C203.361 161.194 200.003 164.552 200.003 168.694V185.851C200.003 189.993 203.361 193.351 207.503 193.351C211.645 193.351 215.003 189.993 215.003 185.851V168.694C215.003 164.552 211.646 161.194 207.503 161.194Z"/>
</svg>
